src/pos-icons/christianity-outline.svg

<svg height="24" viewBox="0 0 24 24" width="24" xmlns="http://www.w3.org/2000/svg"><path d="m15.5 6v-5h-7v5h-5.5v7h5.5v10h7v-10h5.5v-7zm3.5 5h-5.5v10h-3v-10h-5.5v-3h5.5v-5h3v5h5.5z"/></svg>

<?xml version="1.0" encoding="UTF-8"?><!DOCTYPE svg PUBLIC "-//W3C//DTD SVG 1.1//EN" "http://www.w3.org/Graphics/SVG/1.1/DTD/svg11.dtd"><svg xmlns="http://www.w3.org/2000/svg" xmlns:xlink="http://www.w3.org/1999/xlink" version="1.1" id="mdi-christianity-outline" width="24" height="24" viewBox="0 0 24 24"><path d="M15.5,6V1H8.5V6H3V13H8.5V23H15.5V13H21V6H15.5M19,11H13.5V21H10.5V11H5V8H10.5V3H13.5V8H19V11Z" /></svg>
